!!!SOCIAL_FUNCTION:	arapaho war song
!!!PDT:	1936
!!!OTL: No_17_Song_of_Gift_Dance.krn
!!!REG: Oklahoma and Montana
!!!LANG: Tone
!!!LING_GROUP: Algonquin
**kern	**kern
*staff2	*staff1
=1-	=1-
*clefF4	*clefG2
*k[f#]	*k[f#]
*M2/4	*M2/4
12GG/	8g/L
12r	.
.	8g/J
12GG/	.
12GG/	4g/
12r	.
12GG/	.
=2	=2
12GG/	8d/L
12r	.
.	8d/J
12GG/	.
4r	8d/L
.	8d/J
=3	=3
2r	8d/L
.	8d/J
.	4d/
=4	=4
2r	8g/L
.	8g/J
.	4g/
=5	=5
2r	8d/L
.	8d/J
.	8d/L
.	8d/J
=6	=6
2r	8d/L
.	8d/J
.	8d/L
.	8d/J
=7	=7
2r	8g/L
.	8d/J
.	4d/
=8	=8
2r	8c/L
.	8c/J
.	8d/L
.	8B/J
=9	=9
2r	4B/
.	4G/
=10	=10
*M3/4	*M3/4
2.r	8G/L
.	8G/J
.	8G/L
.	8G/J
.	8G/L
.	8G/J
=11	=11
*M2/4	*M2/4
2r	8B/L
.	8B/J
.	4B/
=12	=12
*M3/4	*M3/4
2.r	4G/
.	8G/L
.	8G/J
.	8G/L
.	8G/J
=13	=13
2.r	2.G/
=14	=14
*M2/4	*M2/4
2r	8G/L
.	8G/J
.	4r
=15	=15
2r	8d/L
.	8d/J
.	4d/
=16	=16
2r	4d/
.	8d/L
.	8B/J
=17	=17
2r	4B/
.	8G/L
.	8G/J
=18	=18
*M3/4	*M3/4
2.r	8G/L
.	8G/J
.	8G/L
.	8G/J
.	8G/
.	8r
=19	=19
*M2/4	*M2/4
2r	8B/L
.	8B/J
.	8B/
.	8r
=20	=20
*M3/4	*M3/4
2.r	4G/
.	8G/L
.	8G/J
.	8G/L
.	8G/J
=21	=21
2.r	2.B/
=22	=22
2.r	2.B/
==	==
*-	*-
